src/assets/illustrations/sheet.svg

<svg width="40" height="40" viewBox="0 0 40 40" fill="none" xmlns="http://www.w3.org/2000/svg">
<path d="M7.23915 13.8174C7.23915 11.1335 7.23915 8.4496 7.23915 5.7657C7.23915 5.72901 7.22289 4.82388 7.33073 4.89577C7.62387 5.0912 8.04672 5.11899 8.40342 5.1574C10.3834 5.37063 12.4619 5.25089 14.4471 5.19665C17.6898 5.10805 20.916 4.72635 24.1602 4.64722C25.6507 4.61087 27.1523 4.70366 28.6406 4.60798C29.8709 4.52889 30.9215 4.15964 32.0811 3.92773" stroke="#544339" stroke-width="0.9375" stroke-linecap="round"/>
<path d="M32.0797 3.92773C32.4546 11.603 32.8922 19.2972 32.7273 26.984C32.6686 29.7204 32.5955 32.4564 32.5507 35.1927C32.5377 35.9843 32.3994 36.1145 31.648 36.0626C25.8045 35.6596 19.9746 35.716 14.1122 35.716C12.9613 35.716 11.7722 35.5982 10.6521 35.5982C10.2034 35.5982 8.76836 35.5597 8.76836 35.0684C8.76836 34.0376 8.82592 32.9861 8.70949 31.9616C8.63473 31.3036 8.88027 29.2377 8.17969 28.8874" stroke="#544339" stroke-width="0.9375" stroke-linecap="round"/>
<path d="M7.47461 14.1719C8.84621 14.1719 9.94703 14.1974 9.94703 15.794C9.94703 15.941 10.0355 16.5035 9.92086 16.6181C9.68278 16.8562 9.1201 16.762 8.82201 16.762C8.59308 16.762 7.9063 16.762 8.13523 16.762C8.40498 16.762 8.61193 16.8798 8.88742 16.8798C9.33129 16.8798 10.048 17.3195 10.2741 17.7039C10.6387 18.3239 10.4222 18.8857 9.85546 19.2344C9.64545 19.3637 8.01909 19.4061 8.23988 19.5288C8.52773 19.6887 9.03374 19.7403 9.3649 19.8231C9.76283 19.9226 10.0263 20.2395 10.3002 20.5295C10.7599 21.0163 10.3574 21.9303 9.82929 22.1189C9.43285 22.2605 8.19486 22.2911 8.59963 22.4067C9.12093 22.5557 10.077 22.3176 10.3918 22.8842C11.0482 24.0658 10.2203 25.1212 8.92666 25.1212C8.29558 25.1212 8.27024 25.1212 8.88742 25.1212C9.26332 25.1212 9.91193 25.2166 10.2348 25.422C10.8522 25.8149 10.7976 26.1991 10.7712 26.9133C10.7459 27.5959 10.0791 28.5355 9.35836 28.5355C9.02406 28.5355 8.2551 28.47 8.06328 28.1822" stroke="#544339" stroke-width="0.9375" stroke-linecap="round"/>
<path fill-rule="evenodd" clip-rule="evenodd" d="M15.621 12.7766C15.6687 12.6176 15.8492 12.3762 16.2126 12.093C16.5597 11.8224 17.0147 11.5591 17.5035 11.3381C17.9916 11.1175 18.4968 10.9466 18.9386 10.8528C19.3999 10.7549 19.7218 10.7565 19.8846 10.8088C20.0697 10.8683 20.2325 10.9506 20.3988 11.0475C20.452 11.0785 20.5178 11.1188 20.5882 11.1619L20.5882 11.1619C20.7018 11.2314 20.8274 11.3083 20.9322 11.3659C21.3472 11.5939 21.8307 11.7607 22.5281 11.6367C24.3016 11.3214 26.0338 11.3238 27.8731 11.3264C28.0386 11.3266 28.205 11.3268 28.3724 11.3268C28.6313 11.3268 28.8411 11.117 28.8411 10.8581C28.8411 10.5992 28.6313 10.3893 28.3724 10.3893C28.2026 10.3893 28.0329 10.3891 27.8634 10.3888L27.8633 10.3888C26.0381 10.3859 24.2238 10.3831 22.364 10.7137C21.9311 10.7907 21.6652 10.6989 21.3836 10.5442C21.2848 10.4899 21.2068 10.4417 21.1189 10.3873C21.048 10.3435 20.9707 10.2957 20.8707 10.2375C20.674 10.1228 20.446 10.0046 20.1714 9.9163C19.7663 9.78607 19.2427 9.82989 18.7439 9.93578C18.2254 10.0459 17.6558 10.2405 17.1173 10.4838C16.5795 10.7269 16.0562 11.0262 15.6362 11.3536C15.2324 11.6683 14.857 12.0604 14.723 12.5072C14.6486 12.7552 14.7893 13.0165 15.0373 13.0909C15.2853 13.1653 15.5466 13.0246 15.621 12.7766ZM17.783 17.1308C18.6113 16.9237 19.5364 16.9477 20.1274 17.3811C20.5377 17.682 21.0493 17.767 21.4778 17.8076C21.6365 17.8227 21.8013 17.8327 21.9548 17.8421L21.9548 17.8421L21.955 17.8421H21.955L21.9555 17.8421L21.9563 17.8422L21.9569 17.8422C22.0129 17.8456 22.0674 17.8489 22.1196 17.8524C22.3239 17.8659 22.5025 17.8817 22.6595 17.9102C23.0513 17.9815 23.3468 17.8294 23.5492 17.686C23.6226 17.6339 23.697 17.5731 23.7553 17.5254L23.7969 17.4916C23.8681 17.4342 23.9178 17.3978 23.962 17.3732C24.2485 17.2141 24.5192 17.2141 24.9956 17.2142L27.8372 17.2142C28.0961 17.2142 28.306 17.0043 28.306 16.7454C28.306 16.4865 28.0961 16.2767 27.8372 16.2767H25.0227L24.9313 16.2764C24.5126 16.2748 24.0121 16.2729 23.5067 16.5537C23.3881 16.6196 23.2862 16.699 23.2083 16.7619C23.1852 16.7805 23.1644 16.7974 23.1454 16.813L23.1454 16.813C23.0922 16.8564 23.0518 16.8894 23.0071 16.921C22.9031 16.9947 22.866 16.9949 22.8272 16.9879C22.6144 16.9492 22.3909 16.9307 22.1814 16.9169C22.1181 16.9127 22.0566 16.909 21.9964 16.9053C21.8486 16.8963 21.7082 16.8878 21.5664 16.8743C21.1607 16.8358 20.8727 16.7651 20.6818 16.6251C19.7573 15.9471 18.4885 15.9881 17.5556 16.2213L17.5518 16.2223L17.5517 16.2223L17.5517 16.2223C17.2437 16.2993 16.6267 16.4535 16.064 16.6866C15.7823 16.8033 15.4917 16.9487 15.254 17.1285C15.0245 17.302 14.7818 17.5547 14.7123 17.9022C14.6615 18.156 14.8262 18.403 15.08 18.4538C15.3339 18.5045 15.5808 18.3399 15.6316 18.086C15.635 18.069 15.6636 17.9941 15.8194 17.8763C15.967 17.7647 16.1757 17.6551 16.4228 17.5528C16.9153 17.3487 17.4713 17.2087 17.783 17.1308ZM25.2727 23.3029C24.9475 23.4413 24.5774 23.5882 24.1469 23.6999C23.4809 23.8725 22.8365 23.8546 22.2392 23.7986C22.0167 23.7777 21.8084 23.7529 21.6072 23.7289L21.6072 23.7289C21.242 23.6854 20.9001 23.6447 20.5387 23.6354C19.7552 23.6153 18.9849 23.7002 18.1856 23.7949L18.0502 23.811C17.3021 23.9 16.5251 23.9923 15.7344 23.9923C15.4755 23.9923 15.2656 23.7825 15.2656 23.5236C15.2656 23.2647 15.4755 23.0548 15.7344 23.0548C16.4677 23.0548 17.1934 22.9686 17.9545 22.8783L17.9546 22.8782L18.0753 22.8639C18.8708 22.7697 19.7033 22.6762 20.5627 22.6982C20.9645 22.7085 21.3854 22.7582 21.7793 22.8047L21.7793 22.8047C21.9698 22.8272 22.154 22.849 22.3267 22.8652C22.8856 22.9176 23.4023 22.9244 23.9116 22.7924C24.2755 22.698 24.5958 22.5721 24.9058 22.4402C24.9727 22.4117 25.0406 22.3823 25.1092 22.3526L25.1092 22.3526L25.1092 22.3526L25.1092 22.3526C25.3473 22.2494 25.5932 22.1428 25.833 22.0613C26.1525 21.9526 26.4948 21.8751 26.8746 21.8869C27.2566 21.8988 27.6494 22.0001 28.0741 22.2124C28.3056 22.3282 28.3995 22.6098 28.2837 22.8413C28.1679 23.0729 27.8864 23.1667 27.6548 23.0509C27.3345 22.8908 27.074 22.8311 26.8455 22.824C26.6147 22.8168 26.3893 22.8623 26.1349 22.9488C25.9345 23.017 25.7363 23.1028 25.5063 23.2024L25.5059 23.2026C25.4319 23.2346 25.3545 23.2681 25.2727 23.3029ZM24.5148 28.9875C25.0815 28.9875 25.5813 28.7648 25.9705 28.5914L25.9733 28.5901C26.4011 28.3996 26.6904 28.2739 26.9726 28.2739C27.2314 28.2739 27.4413 28.0641 27.4413 27.8052C27.4413 27.5463 27.2314 27.3364 26.9726 27.3364C26.4795 27.3364 26.0189 27.5426 25.655 27.7055L25.5918 27.7338C25.1806 27.9169 24.8548 28.05 24.5148 28.05C23.3191 28.05 22.2379 28.0169 21.0938 27.8005C20.2184 27.6349 19.2794 27.6581 18.4177 27.6795C18.1379 27.6865 17.8661 27.6932 17.6074 27.6932C17.497 27.6932 17.3655 27.6838 17.2013 27.6722L17.1851 27.671C17.021 27.6593 16.8314 27.6463 16.6413 27.6457C16.2842 27.6447 15.8046 27.6839 15.4416 27.9743C15.2394 28.136 15.2066 28.431 15.3684 28.6332C15.5301 28.8353 15.8251 28.8681 16.0272 28.7064C16.1197 28.6323 16.3076 28.5823 16.6387 28.5832C16.7926 28.5837 16.9522 28.5943 17.1186 28.6061L17.1495 28.6083H17.1495C17.2998 28.6191 17.4624 28.6307 17.6074 28.6307C17.9187 28.6307 18.2237 28.6232 18.5234 28.6159C19.3581 28.5956 20.1509 28.5762 20.9195 28.7216C22.1528 28.955 23.3056 28.9875 24.5148 28.9875Z" fill="#544339"/>
</svg>

<svg width="40" height="40" fill="none" xmlns="http://www.w3.org/2000/svg"><path d="M7.24 13.817V5.766c0-.037-.017-.942.09-.87.294.195.717.223 1.073.261 1.98.214 4.059.094 6.044.04 3.243-.089 6.469-.47 9.713-.55 1.49-.036 2.992.057 4.48-.039 1.23-.08 2.282-.448 3.441-.68" stroke="#544339" stroke-width=".938" stroke-linecap="round"/><path d="M32.08 3.928c.375 7.675.812 15.37.647 23.056-.058 2.736-.131 5.472-.176 8.209-.013.791-.152.922-.903.87-5.843-.403-11.673-.347-17.536-.347-1.15 0-2.34-.118-3.46-.118-.449 0-1.884-.038-1.884-.53 0-1.03.058-2.082-.059-3.106-.074-.658.171-2.724-.53-3.075" stroke="#544339" stroke-width=".938" stroke-linecap="round"/><path d="M7.475 14.172c1.371 0 2.472.025 2.472 1.622 0 .147.089.71-.026.824-.238.238-.8.144-1.099.144h-.687c.27 0 .477.118.752.118.444 0 1.161.44 1.387.824.365.62.148 1.182-.419 1.53-.21.13-1.836.172-1.615.295.288.16.794.211 1.125.294.398.1.661.416.935.706.46.487.057 1.401-.47 1.59-.397.142-1.635.172-1.23.288.52.149 1.477-.09 1.792.477.656 1.182-.172 2.237-1.465 2.237h-.04c.376 0 1.025.096 1.348.301.617.393.563.777.536 1.491-.025.683-.692 1.622-1.413 1.622-.334 0-1.103-.065-1.295-.353" stroke="#544339" stroke-width=".938" stroke-linecap="round"/><path fill-rule="evenodd" clip-rule="evenodd" d="M15.621 12.777c.048-.16.228-.4.592-.684.347-.27.802-.534 1.29-.755.489-.22.994-.391 1.436-.485.46-.098.783-.096.946-.044.185.06.348.142.514.239.053.03.119.07.19.114.113.07.238.146.343.204.415.228.899.395 1.596.27 1.774-.315 3.506-.312 5.345-.31h.5a.469.469 0 1 0 0-.937h-.51c-1.825-.003-3.64-.006-5.499.325-.433.077-.699-.015-.98-.17a5.59 5.59 0 0 1-.265-.157c-.071-.043-.148-.091-.248-.15a3.492 3.492 0 0 0-.7-.32c-.405-.13-.928-.087-1.427.019a8.212 8.212 0 0 0-1.627.548 7.45 7.45 0 0 0-1.48.87c-.405.314-.78.706-.914 1.153a.469.469 0 1 0 .898.27zm2.162 4.354c.828-.207 1.753-.183 2.344.25.41.301.922.386 1.35.427.16.015.324.025.478.034h.001l.164.01c.204.014.383.03.54.058.391.072.687-.08.89-.224a3.91 3.91 0 0 0 .205-.16l.042-.034c.071-.058.12-.094.165-.119.287-.159.557-.159 1.034-.159h2.841a.469.469 0 0 0 0-.937h-2.906c-.418-.002-.919-.004-1.424.277-.119.066-.22.145-.299.208a8.507 8.507 0 0 0-.063.051c-.053.043-.093.076-.138.108-.104.074-.141.074-.18.067a5.773 5.773 0 0 0-.646-.071l-.185-.012c-.147-.009-.288-.017-.43-.03-.405-.04-.693-.11-.884-.25-.925-.678-2.194-.637-3.126-.404l-.004.001c-.308.077-.925.231-1.488.465a3.726 3.726 0 0 0-.81.441c-.23.174-.472.427-.542.774a.469.469 0 0 0 .92.184c.003-.017.032-.092.187-.21.148-.111.357-.22.604-.323.492-.204 1.048-.344 1.36-.422zm7.49 6.172a7.877 7.877 0 0 1-1.126.397c-.666.172-1.31.155-1.908.099-.222-.021-.43-.046-.632-.07a11.372 11.372 0 0 0-1.068-.094c-.784-.02-1.554.065-2.353.16l-.136.016c-.748.089-1.525.181-2.316.181a.469.469 0 1 1 0-.937c.734 0 1.46-.086 2.22-.177l.121-.014c.796-.094 1.628-.188 2.488-.166.402.01.822.06 1.216.107.19.022.375.044.548.06.559.053 1.075.06 1.585-.073.364-.094.684-.22.994-.352l.203-.087c.238-.104.484-.21.724-.292.32-.108.662-.186 1.042-.174.382.012.774.113 1.2.325a.469.469 0 0 1-.42.839c-.32-.16-.581-.22-.81-.227a1.98 1.98 0 0 0-.71.125c-.2.068-.399.154-.629.253-.074.033-.151.066-.233.1zm-.758 5.684c.566 0 1.066-.222 1.456-.396h.002c.428-.191.717-.317 1-.317a.469.469 0 0 0 0-.938c-.493 0-.954.207-1.318.37l-.063.028c-.411.183-.737.316-1.077.316-1.196 0-2.277-.033-3.421-.25-.876-.165-1.815-.142-2.676-.12-.28.006-.552.013-.81.013-.111 0-.242-.01-.407-.02l-.016-.002a8.026 8.026 0 0 0-.544-.025c-.357-.001-.836.038-1.2.328a.469.469 0 1 0 .586.732c.093-.074.28-.124.612-.123.154 0 .313.011.48.023l.03.002c.15.011.313.023.458.023.312 0 .617-.008.916-.015.835-.02 1.628-.04 2.396.106 1.234.233 2.387.265 3.596.265z" fill="#544339"/></svg>
